X:78
T:Paddy's Flight to London. THO5.078
M:2/4
L:1/8
B:Thompson's Complete Collection of 200 Favourite Dances Vol.5
F:https://www.libraryofdance.org/manuals/1780c-Thompson-Compleat-5.pdf
Z:vmp. Peter Dunk 2024
Q:1/4=120
K:A
A|A>Bc>d|e>fe>d|ccBB |A[cE][eC][aA,]|
A>Bc>d|e>fe>d|ccBB|A2-A:|
|:A|ccBB|ccdB|ccBB|ccdB|
eeee|e>fed|c2B2|A2-A:|
W:
W:The 1st and 2nd Couples change sides and back again ./.
W:Hands across & back again ./:
W:Lead down the middle, up again and cast off :/.
W:The  Allemand :/:

